dist/icons/svgs/bell-outline.svg

<svg xmlns="http://www.w3.org/2000/svg" width="24" height="24" fill="currentcolor" class="icon-bell-outline" viewBox="0 0 24 24">
  <path d="M12 2C12.6641 2 13.25 2.58594 13.25 3.25V3.95312C16.0625 4.42188 18.25 6.88281 18.25 9.8125V11.1406C18.25 12.8984 18.8359 14.6172 19.9297 16.0234L20.5156 16.7266C20.75 17.0391 20.7891 17.4297 20.6328 17.7422C20.4766 18.0547 20.1641 18.25 19.8125 18.25H4.1875C3.79688 18.25 3.48438 18.0547 3.32812 17.7422C3.17188 17.4297 3.21094 17.0391 3.44531 16.7266L4.03125 16.0234C5.125 14.6172 5.75 12.8984 5.75 11.1406V9.8125C5.75 6.88281 7.89844 4.42188 10.75 3.95312V3.25C10.75 2.58594 11.2969 2 12 2ZM12 5.75H11.6875C9.42188 5.75 7.625 7.58594 7.625 9.8125V11.1406C7.625 13.0156 7.07812 14.8125 6.0625 16.375H17.8984C16.8828 14.8125 16.375 13.0156 16.375 11.1406V9.8125C16.375 7.58594 14.5391 5.75 12.3125 5.75H12ZM14.5 19.5C14.5 20.1641 14.2266 20.8281 13.7578 21.2969C13.2891 21.7656 12.6641 22 12 22C11.3359 22 10.6719 21.7656 10.2031 21.2969C9.73438 20.8281 9.5 20.1641 9.5 19.5H12H14.5Z"/>
</svg>

<svg xmlns="http://www.w3.org/2000/svg" width="24" height="24" fill="currentColor" class="icon-bell-outline" viewBox="0 0 24 24">
  <path d="M12 2c.664 0 1.25.586 1.25 1.25v.703c2.813.469 5 2.93 5 5.86v1.328a7.95 7.95 0 0 0 1.68 4.882l.586.704c.234.312.273.703.117 1.015a.91.91 0 0 1-.82.508H4.188c-.391 0-.704-.195-.86-.508-.156-.312-.117-.703.117-1.015l.586-.704c1.094-1.406 1.719-3.125 1.719-4.882V9.813c0-2.93 2.148-5.391 5-5.86V3.25c0-.664.547-1.25 1.25-1.25m0 3.75h-.312a4.06 4.06 0 0 0-4.063 4.063v1.328a9.56 9.56 0 0 1-1.562 5.234h11.835c-1.015-1.562-1.523-3.36-1.523-5.234V9.813c0-2.227-1.836-4.063-4.062-4.063zm2.5 13.75c0 .664-.273 1.328-.742 1.797S12.664 22 12 22s-1.328-.234-1.797-.703S9.5 20.164 9.5 19.5z"/>
</svg>
